img/button-close-icon.svg

<svg width="14" height="14" viewBox="0 0 14 14" fill="none" xmlns="http://www.w3.org/2000/svg">
<path fill-rule="evenodd" clip-rule="evenodd" d="M12.8858 2.05482C13.1461 1.79447 13.1461 1.37236 12.8858 1.11201C12.6254 0.851661 12.2033 0.851661 11.943 1.11201L6.99877 6.0562L2.05458 1.11201C1.79423 0.851661 1.37212 0.851661 1.11177 1.11201C0.851417 1.37236 0.851417 1.79447 1.11177 2.05482L6.05596 6.99901L1.11177 11.9432C0.851417 12.2036 0.851417 12.6257 1.11177 12.886C1.37212 13.1464 1.79423 13.1464 2.05458 12.886L6.99877 7.94182L11.943 12.886C12.2033 13.1464 12.6254 13.1464 12.8858 12.886C13.1461 12.6257 13.1461 12.2036 12.8858 11.9432L7.94158 6.99901L12.8858 2.05482Z" fill="#2D3440"/>
</svg>

<svg width="14" height="14" fill="none" xmlns="http://www.w3.org/2000/svg"><path fill-rule="evenodd" clip-rule="evenodd" d="M12.8858 2.05482c.2603-.26035.2603-.68246 0-.94281-.2604-.26035-.6825-.26035-.9428 0L6.99877 6.0562 2.05458 1.11201c-.26035-.26035-.68246-.26035-.94281 0-.26035.26035-.26035.68246 0 .94281l4.94419 4.94419-4.94419 4.94419c-.26035.2604-.26035.6825 0 .9428.26035.2604.68246.2604.94281 0l4.94419-4.94418L11.943 12.886c.2603.2604.6824.2604.9428 0 .2603-.2603.2603-.6824 0-.9428L7.94158 6.99901l4.94422-4.94419Z" fill="#2D3440"/></svg>
